X:1
T:Froggy's First Jump
M:C
L:1/8
C:Dave Whetstone
S:Over the Water
N:
A:Bampton
O:Oxon.
R:Reel
P:A.(AB2)4.A
Q:1/4=138
K:G
P:A
"A"[|] dedc  BGBd  | c2 B2 A3 c |1 BcBA G2 B2 | A2 FG A4 :|2 BcBG E2 F2 |\
 G4 G4 ||
P:B
"B"|:
AFGA  B2 A2 | G3  A G3 A | BGAB c2 e2 | d6 Bc | d4 c4 | B4 A3 c | BcBG E2 F2 |\
G4    G4    :|
